outputs/icons/editor/underline_round.svg

<svg xmlns="http://www.w3.org/2000/svg" width="1200" height="1200" fill="none"><g clip-path="url(#a)"><path fill="#000" d="M639.5 847.5C791 828 900 692 900 539.5v-327c0-34.5-28-62.5-62.5-62.5S775 178 775 212.5V545c0 83.5-56.5 159.5-138.5 176C524 744.5 425 658.5 425 550V212.5c0-34.5-28-62.5-62.5-62.5S300 178 300 212.5V550c0 178.5 156.5 321 339.5 297.5M250 1000c0 27.5 22.5 50 50 50h600c27.5 0 50-22.5 50-50s-22.5-50-50-50H300c-27.5 0-50 22.5-50 50"/></g><defs><clipPath id="a"><path fill="#fff" d="M0 0h1200v1200H0z"/></clipPath></defs></svg>

<svg width="1200" height="1200" viewBox="0 0 1200 1200" fill="none" xmlns="http://www.w3.org/2000/svg"><g clip-path="url(#clip0_238_235)"><path d="M639.5 847.5C791 828 900 692 900 539.5V212.5C900 178 872 150 837.5 150C803 150 775 178 775 212.5V545C775 628.5 718.5 704.5 636.5 721C524 744.5 425 658.5 425 550V212.5C425 178 397 150 362.5 150C328 150 300 178 300 212.5V550C300 728.5 456.5 871 639.5 847.5ZM250 1000C250 1027.5 272.5 1050 300 1050H900C927.5 1050 950 1027.5 950 1000C950 972.5 927.5 950 900 950H300C272.5 950 250 972.5 250 1000Z" fill="black"/></g><defs><clipPath id="clip0_238_235"><path width="24" fill="white" d="M0 0H1200V1200H0V0z"/></clipPath></defs></svg>
